assets/Triangular ruler/Flat/triangular_ruler_flat.svg

<svg width="32" height="32" viewBox="0 0 32 32" fill="none" xmlns="http://www.w3.org/2000/svg">
<path d="M2 27.6667V4.12132C2 2.94975 2.94975 2 4.12132 2C4.68393 2 5.2235 2.2235 5.62132 2.62132L29.3787 26.3787C29.7765 26.7765 30 27.3161 30 27.8787C30 29.0503 29.0503 30 27.8787 30H4.33333C3.04467 30 2 28.9553 2 27.6667ZM9 24H16.2618C16.9032 24 17.2245 23.2245 16.7709 22.7709L9.22912 15.2291C8.77554 14.7755 8 15.0968 8 15.7382V23C8 23.5523 8.44772 24 9 24Z" fill="#BEBEBE"/>
<path d="M28.3906 25.3906L29.1094 26.1095L27.3594 27.8595C27.1609 28.058 26.8391 28.058 26.6406 27.8595C26.4421 27.661 26.4421 27.3391 26.6406 27.1406L28.3906 25.3906Z" fill="#8D65C5"/>
<path d="M22.8906 19.8906L23.6094 20.6095L21.8594 22.3595C21.6609 22.558 21.3391 22.558 21.1406 22.3595C20.9421 22.161 20.9421 21.8391 21.1406 21.6406L22.8906 19.8906Z" fill="#8D65C5"/>
<path d="M17.3906 14.3906L18.1094 15.1095L16.3594 16.8595C16.1609 17.058 15.8391 17.058 15.6406 16.8595C15.4421 16.661 15.4421 16.3391 15.6406 16.1406L17.3906 14.3906Z" fill="#8D65C5"/>
<path d="M11.8906 8.89062L12.6094 9.60947L10.8594 11.3595C10.6609 11.558 10.3391 11.558 10.1406 11.3595C9.94207 11.161 9.94207 10.8391 10.1406 10.6406L11.8906 8.89062Z" fill="#8D65C5"/>
<path d="M7.10942 4.10947L5.35942 5.85947C5.16092 6.05797 4.83908 6.05797 4.64058 5.85947C4.44207 5.66097 4.44207 5.33913 4.64058 5.14062L6.39058 3.39062L7.10942 4.10947Z" fill="#8D65C5"/>
<path d="M9.35942 7.35947C9.55793 7.16097 9.55793 6.83913 9.35942 6.64062C9.16092 6.44212 8.83908 6.44212 8.64058 6.64062L7.64058 7.64062C7.44207 7.83913 7.44207 8.16097 7.64058 8.35947C7.83908 8.55797 8.16092 8.55797 8.35942 8.35947L9.35942 7.35947Z" fill="#8D65C5"/>
<path d="M14.8594 12.8595C15.0579 12.661 15.0579 12.3391 14.8594 12.1406C14.6609 11.9421 14.3391 11.9421 14.1406 12.1406L13.1406 13.1406C12.9421 13.3391 12.9421 13.661 13.1406 13.8595C13.3391 14.058 13.6609 14.058 13.8594 13.8595L14.8594 12.8595Z" fill="#8D65C5"/>
<path d="M20.3594 18.3595C20.5579 18.161 20.5579 17.8391 20.3594 17.6406C20.1609 17.4421 19.8391 17.4421 19.6406 17.6406L18.6406 18.6406C18.4421 18.8391 18.4421 19.161 18.6406 19.3595C18.8391 19.558 19.1609 19.558 19.3594 19.3595L20.3594 18.3595Z" fill="#8D65C5"/>
<path d="M25.8594 23.8595C26.0579 23.661 26.0579 23.3391 25.8594 23.1406C25.6609 22.9421 25.3391 22.9421 25.1406 23.1406L24.1406 24.1406C23.9421 24.3391 23.9421 24.661 24.1406 24.8595C24.3391 25.058 24.6609 25.058 24.8594 24.8595L25.8594 23.8595Z" fill="#8D65C5"/>
</svg>

<svg xmlns="http://www.w3.org/2000/svg" width="32" height="32" fill="none"><path fill="#BEBEBE" d="M2 27.667V4.12a2.121 2.121 0 0 1 3.621-1.5L29.38 26.38a2.121 2.121 0 0 1-1.5 3.621H4.333A2.333 2.333 0 0 1 2 27.667ZM9 24h7.262a.72.72 0 0 0 .509-1.23l-7.542-7.54A.72.72 0 0 0 8 15.737V23a1 1 0 0 0 1 1Z"/><path fill="#8D65C5" d="m28.39 25.39.72.72-1.75 1.75a.508.508 0 1 1-.72-.72l1.75-1.75ZM22.89 19.89l.72.72-1.75 1.75a.508.508 0 1 1-.72-.72l1.75-1.75ZM17.39 14.39l.72.72-1.75 1.75a.508.508 0 1 1-.72-.72l1.75-1.75ZM11.89 8.89l.72.72-1.75 1.75a.508.508 0 1 1-.72-.72l1.75-1.75ZM7.11 4.11 5.36 5.86a.508.508 0 0 1-.72-.72l1.75-1.75.72.72ZM9.36 7.36a.508.508 0 1 0-.72-.72l-1 1a.508.508 0 1 0 .72.72l1-1ZM14.86 12.86a.508.508 0 0 0-.72-.72l-1 1a.508.508 0 0 0 .72.72l1-1ZM20.36 18.36a.508.508 0 0 0-.72-.72l-1 1a.508.508 0 0 0 .72.72l1-1ZM25.86 23.86a.508.508 0 0 0-.72-.72l-1 1a.508.508 0 0 0 .72.72l1-1Z"/></svg>
